X: 45
P: No. XLV.
M: 6/8
L: 1/16
Q: "Slow"
K: F
V: 1
(F3GF2) (F2A2c2) | (B2d2f2) f4 e>d | c3BA2 G2F2G2 | A6 z4 A>G |\
(F3GF2) (F2A2c2) | (B2d2f2) H{eg}f4 e>d | c3fA2 TG3FG2 | F6- F4 |]
V: 2 clef=bass middle=d
z2 |\
f4a2 f4a2 | b4d'2 b4g2 | a4f2 e4c2 | f2a2c'2 f4c2 |\
f4a2 f4a2 | b4d'2 b4g2 | a4f2 c'4c2 | f4 (c/B/A/G/) F4z2 |
f4a2 f4a2 | b4d'2 Hb4g2 | a4f2 c'4c2 | f4c2 F4 |]

